32x32/apps/allegorithmic-Substance_Painter.svg

<svg xmlns="http://www.w3.org/2000/svg" width="32" height="32"><circle style="opacity:.2" cx="16" cy="4" r="2"/><circle style="opacity:.2" cx="3.5" cy="26.5" r="1.5"/><circle style="opacity:.2" cx="28" cy="27" r="3"/><circle style="opacity:.2" cx="16" cy="18" r="11"/><circle style="fill:#e2222f" cx="16" cy="3" r="2"/><circle style="fill:#e2222f" cx="3.5" cy="25.5" r="1.5"/><circle style="fill:#e2222f" cx="28" cy="26" r="3"/><circle style="fill:#e2222f" cx="16" cy="17" r="11"/><path style="opacity:.2" d="m16 9-8 4v4l12 4-4 2-4-2v-1l-4-1.333V23l8 4 8-4v-4l-12-4 4-2 4 2v1l4 1.333V13z"/><path style="fill:#fdffff" d="m16 8-8 4v4l12 4-4 2-4-2v-1l-4-1.333V22l8 4 8-4v-4l-12-4 4-2 4 2v1l4 1.333V12z"/><path style="opacity:.2;fill:#f4f4f7" d="M16 1a2 2 0 0 0-2 2 2 2 0 0 0 .064.504A2 2 0 0 1 16 2a2 2 0 0 1 1.936 1.496A2 2 0 0 0 18 3a2 2 0 0 0-2-2zM3.5 24A1.5 1.5 0 0 0 2 25.5a1.5 1.5 0 0 0 .088.5A1.5 1.5 0 0 1 3.5 25a1.5 1.5 0 0 1 1.412 1A1.5 1.5 0 0 0 5 25.5 1.5 1.5 0 0 0 3.5 24zM28 23a3 3 0 0 0-3 3 3 3 0 0 0 .043.514A3 3 0 0 1 28 24a3 3 0 0 1 2.957 2.486A3 3 0 0 0 31 26a3 3 0 0 0-3-3zM16 6A11 11 0 0 0 5 17a11 11 0 0 0 .021.586A11 11 0 0 1 16 7a11 11 0 0 1 10.979 10.414A11 11 0 0 0 27 17 11 11 0 0 0 16 6z"/></svg>

<svg xmlns="http://www.w3.org/2000/svg" width="32" height="32" version="1.1">
 <circle style="opacity:0.2" cx="16" cy="4" r="2"/>
 <circle style="opacity:0.2" cx="3.5" cy="26.5" r="1.5"/>
 <circle style="opacity:0.2" cx="28" cy="27" r="3"/>
 <circle style="opacity:0.2" cx="16" cy="18" r="11"/>
 <circle style="fill:#e2222f" cx="16" cy="3" r="2"/>
 <circle style="fill:#e2222f" cx="3.5" cy="25.5" r="1.5"/>
 <circle style="fill:#e2222f" cx="28" cy="26" r="3"/>
 <circle style="fill:#e2222f" cx="16" cy="17" r="11"/>
 <path style="opacity:0.2" d="M 16,9 8,13 V 17 L 20,21 16,23 12,21 V 20 L 8,18.667 V 23 L 16,27 24,23 V 19 L 12,15 16,13 20,15 V 16 L 24,17.333 V 13 Z"/>
 <path style="fill:#fdffff" d="M 16,8 8,12 V 16 L 20,20 16,22 12,20 V 19 L 8,17.667 V 22 L 16,26 24,22 V 18 L 12,14 16,12 20,14 V 15 L 24,16.333 V 12 Z"/>
 <path style="opacity:0.2;fill:#f4f4f7" d="M 16 1 A 2 2 0 0 0 14 3 A 2 2 0 0 0 14.064 3.5039 A 2 2 0 0 1 16 2 A 2 2 0 0 1 17.936 3.4961 A 2 2 0 0 0 18 3 A 2 2 0 0 0 16 1 z"/>
 <path style="opacity:0.2;fill:#f4f4f7" d="M 3.5 24 A 1.5 1.5 0 0 0 2 25.5 A 1.5 1.5 0 0 0 2.0879 26 A 1.5 1.5 0 0 1 3.5 25 A 1.5 1.5 0 0 1 4.9121 26 A 1.5 1.5 0 0 0 5 25.5 A 1.5 1.5 0 0 0 3.5 24 z"/>
 <path style="opacity:0.2;fill:#f4f4f7" d="M 28 23 A 3 3 0 0 0 25 26 A 3 3 0 0 0 25.043 26.514 A 3 3 0 0 1 28 24 A 3 3 0 0 1 30.957 26.486 A 3 3 0 0 0 31 26 A 3 3 0 0 0 28 23 z"/>
 <path style="opacity:0.2;fill:#f4f4f7" d="M 16 6 A 11 11 0 0 0 5 17 A 11 11 0 0 0 5.0215 17.586 A 11 11 0 0 1 16 7 A 11 11 0 0 1 26.979 17.414 A 11 11 0 0 0 27 17 A 11 11 0 0 0 16 6 z"/>
</svg>
